X: 37032
T: Silver And Gold Two-Step
R: polka
M: 2/4
K: Dmajor
L: 1/8
K: Dmaj
FG|"D"A2 FD|"D" A,2 DF|"Em"A G2 F|"Em" G2 EF|"A7" G2 EC|A,2 CE|"D"BA2 ^G|A2 FG|
"D"A2 FD|A,2 DF|"Em"A G2 F|G2 EF|"A7" G2 EC|A,2 CE|"D"D2- D/E/D/C/|D2||
FG|"D" A,F|A,F A,F <FF>|"Em"FE2 ^D|E2 EF|"A7"G,E G,E|G,<E E>D|"D"E D2 C|D2FG|
"D"A,F A,F|A,F <FF|"G"A2 GE|"Em"B,2 CD|"A7" FE2 C|A,2 CE|"D"D2- D/E/D/C/|D2||

